build/images/slider/mountains.svg

<svg width="388" height="211" viewBox="0 0 388 211" fill="none" xmlns="http://www.w3.org/2000/svg">
<path opacity="0.19" d="M112.551 210.91H29.1267C22.9854 210.91 18.8533 204.609 21.294 198.957L64.3401 99.3564L104.719 5.93105C107.693 -0.937955 117.421 -0.937955 120.384 5.93105L160.763 99.3564L203.809 198.957C206.25 204.609 202.117 210.91 195.976 210.91H112.551Z" fill="url(#paint0_linear)"/>
<path opacity="0.19" d="M24.9969 211H2.32438C0.65371 211 -0.468382 209.292 0.192406 207.759L11.8933 180.743L22.8711 155.398C23.6815 153.534 26.3247 153.534 27.1289 155.398L38.1067 180.743L49.8076 207.759C50.4684 209.292 49.3463 211 47.6756 211H24.9969Z" fill="url(#paint1_linear)"/>
<path opacity="0.19" d="M363.172 210.908H341.252C339.64 210.908 338.55 209.248 339.197 207.769L350.504 181.601L361.118 157.059C361.901 155.251 364.455 155.251 365.238 157.059L375.852 181.601L387.159 207.769C387.806 209.248 386.716 210.908 385.104 210.908H363.172Z" fill="url(#paint2_linear)"/>
<defs>
<linearGradient id="paint0_linear" x1="114.706" y1="215.542" x2="92.3722" y2="79.392" gradientUnits="userSpaceOnUse">
<stop stop-color="white"/>
<stop offset="1" stop-color="#00A79E" stop-opacity="0.9"/>
</linearGradient>
<linearGradient id="paint1_linear" x1="26.3196" y1="215.387" x2="19.5214" y2="180.907" gradientUnits="userSpaceOnUse">
<stop stop-color="white"/>
<stop offset="1" stop-color="#00A79E" stop-opacity="0.9"/>
</linearGradient>
<linearGradient id="paint2_linear" x1="364.453" y1="215.155" x2="357.857" y2="181.766" gradientUnits="userSpaceOnUse">
<stop stop-color="white"/>
<stop offset="1" stop-color="#00A79E" stop-opacity="0.9"/>
</linearGradient>
</defs>
</svg>

<svg width="388" height="211" viewBox="0 0 388 211" fill="none" xmlns="http://www.w3.org/2000/svg"><path opacity=".19" d="M112.551 210.91H29.127c-6.142 0-10.274-6.301-7.833-11.953l43.046-99.6L104.72 5.93c2.974-6.869 12.702-6.869 15.665 0l40.379 93.425 43.046 99.601c2.441 5.652-1.692 11.953-7.833 11.953h-83.425z" fill="url(#paint0_linear)"/><path opacity=".19" d="M24.997 211H2.324a2.321 2.321 0 01-2.132-3.241l11.701-27.016 10.978-25.345c.81-1.864 3.454-1.864 4.258 0l10.978 25.345 11.7 27.016a2.321 2.321 0 01-2.13 3.241h-22.68z" fill="url(#paint1_linear)"/><path opacity=".19" d="M363.172 210.908h-21.92c-1.612 0-2.702-1.66-2.055-3.139l11.307-26.168 10.614-24.542c.783-1.808 3.337-1.808 4.12 0l10.614 24.542 11.307 26.168c.647 1.479-.443 3.139-2.055 3.139h-21.932z" fill="url(#paint2_linear)"/><defs><linearGradient id="paint0_linear" x1="114.706" y1="215.542" x2="92.372" y2="79.392" gradientUnits="userSpaceOnUse"><stop stop-color="#fff"/><stop offset="1" stop-color="#00A79E" stop-opacity=".9"/></linearGradient><linearGradient id="paint1_linear" x1="26.32" y1="215.387" x2="19.521" y2="180.907" gradientUnits="userSpaceOnUse"><stop stop-color="#fff"/><stop offset="1" stop-color="#00A79E" stop-opacity=".9"/></linearGradient><linearGradient id="paint2_linear" x1="364.453" y1="215.155" x2="357.857" y2="181.766" gradientUnits="userSpaceOnUse"><stop stop-color="#fff"/><stop offset="1" stop-color="#00A79E" stop-opacity=".9"/></linearGradient></defs></svg>
